!!!OTL: 238. Kozatshke
!!!Genre:	Kozatshke
!!!Mode:	Minor
!!!Listening/dance:	dance
!!!:	*B-:
!!!One_Mode:	no
**kern
*thru
*I"P1
*clefG2
*k[b-e-]
*g:
*M2/4
*>A
!LO:TX:a:i:t=G-minor
24dLL
24g
24b-JJ
=1!|:
4dd
(16cc#XLL
16dd)
16b-
16gJJ
=2
(16dLL
16g)
16b-
16ddJJ
16cc#XLL
16dd
16b-
16gJJ
=3
(16dLL
16g)
16b-
16ddJJ
(16bb-LL
16aa)
16gg
16ff#XJJ
=4
16aaLL
16gg
16ff#X
16ee-JJ
4dd
=5
(16ddLL
16cc)
(16aa
16ccJJ)
(16ccLL
16b-)
16a
16b-JJ
=6
(16ccLL
16dd)
16ee-
16ddJJ
(16cc#XLL
16dd)
16b-
16gJJ
=7
16gLL
16f#X
(16f#
16ee-JJ)
(16ee-LL
16dd)
(16dd
16f#JJ)
*>A1
=8
8gL
8b-J
8gL
24dL
24g
24b-JJ
*>A
!LO:TX:a:i:t=G-minor
=1!|:
4dd
(16cc#XLL
16dd)
16b-
16gJJ
=2
(16dLL
16g)
16b-
16ddJJ
16cc#XLL
16dd
16b-
16gJJ
=3
(16dLL
16g)
16b-
16ddJJ
(16bb-LL
16aa)
16gg
16ff#XJJ
=4
16aaLL
16gg
16ff#X
16ee-JJ
4dd
=5
(16ddLL
16cc)
(16aa
16ccJJ)
(16ccLL
16b-)
16a
16b-JJ
=6
(16ccLL
16dd)
16ee-
16ddJJ
(16cc#XLL
16dd)
16b-
16gJJ
=7
16gLL
16f#X
(16f#
16ee-JJ)
(16ee-LL
16dd)
(16dd
16f#JJ)
*>A2
=9:|!
8gL
8b-
8gJ
*>B
!!!Begin-Modulation
*g:
8dd
=19!|:
!LO:TX:a:i:t=G-minor
8.aatL
16ff#XJk
8ddL
16eenL
16ff#JJ
=20
(16ggLL
16ff#X)
16gg
16aaJJ
(16bb-LL
16aa)
16bb-
16ggJJ
=21
16ee-LL
16dd
16een
16ddJJ
16ffnLL
16dd
16ff#X
16ddJJ
=22
16ccc#XLL
16ddd
16aa
16cccnJJ
(8qccc/
16bb-'LL)
16aaJ
8ggJ
=23
(16eee-LL
16ddd)
(16ccc'
16bb-'JJ
16aa'LL
16gg'
16ff#X'
16ee-'JJ)
=24
(16cccLL
16bb-)
(16aa'
16gg'JJ
16ff#X'LL
16ee-'
16dd'
16cc'JJ)
=25
(16b-'LL
16a)
(16a
16ee-JJ)
(16ee-LL
16dd)
(16dd
16f#XJJ)
*>C1
!!!End-Modulation1
=26
8gL
(8qff#X/
8ggJ)
8g
16r
16dd
*>C
!!!End-Modulation2
=19!|:
!LO:TX:a:i:t=G-minor
8.aatL
16ff#XJk
8ddL
16eenL
16ff#JJ
=20
(16ggLL
16ff#X)
16gg
16aaJJ
(16bb-LL
16aa)
16bb-
16ggJJ
=21
16ee-LL
16dd
16een
16ddJJ
16ffnLL
16dd
16ff#X
16ddJJ
=22
16ccc#XLL
16ddd
16aa
16cccnJJ
(8qccc/
16bb-'LL)
16aaJ
8ggJ
=23
(16eee-LL
16ddd)
(16ccc'
16bb-'JJ
16aa'LL
16gg'
16ff#X'
16ee-'JJ)
=24
(16cccLL
16bb-)
(16aa'
16gg'JJ
16ff#X'LL
16ee-'
16dd'
16cc'JJ)
=25
(16b-'LL
16a)
(16a
16ee-JJ)
(16ee-LL
16dd)
(16dd
16f#XJJ)
!!!End-Modulation1
*>C2
=27:|!
8gL
(8qff#X/
8ggJ)
8g
==
*-
